static/images/mobile/copyright/wikipedia-wordmark-ru.svg

<?xml version="1.0" encoding="UTF-8"?>
<svg xmlns="http://www.w3.org/2000/svg" width="129" height="21" viewBox="0 0 129 21">
	<title>
		ru-wordmark
	</title>
	<g id="Page-1" fill="none" fill-rule="evenodd" stroke="none" stroke-width="1">
		<path id="ru-wordmark" fill="#000" fill-rule="nonzero" d="M89.8365,5.179 L95.1215,5.179 C95.7285,5.179 97.3285,5.142 97.3285,5.142 L97.3695,5.179 L97.3695,5.549 C97.3695,5.665 97.2895,5.697 97.2075,5.703 L96.6195,5.741 C95.9695,5.784 95.8715,6.033 95.8715,6.735 L95.8715,16.207 C95.8715,16.926 96.3265,17.141 96.6825,17.199 C97.1215,17.272 97.2775,17.337 97.2895,17.569 L97.4315,20.447 C96.8845,20.447 96.8845,20.468 96.8845,20.468 C96.6415,19.379 95.9125,17.725 94.2915,17.725 L88.4205,17.725 C86.7385,17.725 86.2135,19.457 85.9905,20.468 L85.4425,20.447 L85.5845,17.569 C85.5985,17.337 85.8105,17.228 86.0115,17.199 C86.4075,17.14 86.7305,17.093 87.0235,16.81 C87.5535,16.304 87.9155,14.903 88.5625,11.869 C89.0065,9.652 89.2505,7.649 89.2505,6.423 C89.2505,6.015 89.0675,5.814 88.5415,5.763 L87.9345,5.703 C87.8325,5.703 87.7735,5.665 87.7735,5.586 L87.7735,5.179 L87.8135,5.142 C87.8135,5.142 89.2305,5.179 89.8365,5.179 Z M125.5165,0.054 C126.3535,0.054 128.9715,0.027 128.9715,0.027 L128.9715,0.602 C128.9715,0.711 128.9175,0.791 128.7835,0.791 L127.9725,0.848 C126.8375,0.93 126.5405,1.123 126.5405,2.053 L126.5405,15.723 C126.5405,16.546 126.8935,16.847 127.9995,16.928 L128.7285,16.986 C128.8355,16.986 128.9445,17.067 128.9445,17.204 L128.9445,17.725 L128.8905,17.782 C128.8905,17.782 126.732253,17.729651 125.627377,17.7252886 L125.4895,17.725 C124.5175,17.725 122.0085,17.782 122.0085,17.782 L121.9535,17.725 L121.9535,17.204 C121.9535,17.067 122.0355,16.986 122.1705,16.986 L122.8715,16.928 C124.0065,16.842 124.3555,16.491 124.3555,15.723 L124.3555,8.848 C121.4945,8.848 120.9555,9.642 119.8215,12.548 C118.6605,15.519 117.6625,17.722 115.7465,17.752 L113.9655,17.777 L113.9385,17.722 L113.9355,17.203 C113.9355,17.066 114.0165,16.985 114.1235,16.985 L114.3655,16.957 C115.2295,16.849 116.5685,15.357 117.9575,11.696 C118.6315,9.916 119.4405,9.23 120.1705,8.793 L120.1705,8.712 C118.3345,8.438 116.1495,7.068 116.1495,4.273 C116.1495,2.382 117.0665,0.027 122.0875,0.027 C123.0325,0.027 124.6245,0.054 125.5165,0.054 Z M6.9765,3.41060513e-13 C11.9975,3.41060513e-13 12.7805,2.382 12.7805,4.218 C12.7805,5.705 11.5685,7.113 10.2165,7.808 L10.2165,7.863 C12.5655,8.549 14.3735,10.053 14.3735,12.685 C14.3735,15.039 12.9425,17.781 7.5715,17.781 C5.1695,17.781 4.7915,17.724 3.6305,17.724 C2.2545,17.724 1.4445,17.752 0.1215,17.781 C-0.0405,17.616 -0.0405,17.04 0.1215,16.875 C2.0115,16.794 2.4695,16.657 2.4695,14.384 L2.4695,3.397 C2.4695,1.124 2.0115,0.986 0.1215,0.904 C-0.0405,0.741 -0.0405,0.165 0.1215,0.001 C1.4715,0.027 2.2535,0.056 3.6035,0.056 C4.7635,0.055 6.0315,3.41060513e-13 6.9765,3.41060513e-13 Z M71.5935,5.142 C71.7145,5.256 71.7145,5.666 71.5935,5.782 C70.1755,5.841 69.8315,5.938 69.8315,7.553 L69.8315,15.354 C69.8315,16.969 70.1755,17.066 71.5935,17.125 C71.7145,17.241 71.7145,17.65 71.5935,17.767 C70.6015,17.746 69.9935,17.727 68.9605,17.727 C67.9485,17.727 67.3605,17.748 66.3495,17.767 C66.2285,17.651 66.2285,17.242 66.3495,17.125 C67.7665,17.066 68.1115,16.97 68.1115,15.354 L68.1115,7.398 C68.1115,6.193 67.6665,5.96 67.1795,5.96 L63.1905,5.96 C62.7055,5.96 62.2585,6.191 62.2585,7.398 L62.2585,15.354 C62.2585,16.969 62.6025,17.066 64.0205,17.125 C64.1435,17.241 64.1435,17.65 64.0205,17.767 C63.0085,17.746 62.4205,17.727 61.4095,17.727 C60.3765,17.727 59.7685,17.748 58.7765,17.767 C58.6555,17.651 58.6555,17.242 58.7765,17.125 C60.1945,17.066 60.5385,16.97 60.5385,15.354 L60.5385,7.553 C60.5385,5.94 60.1945,5.84 58.7765,5.782 C58.6555,5.667 58.6555,5.257 58.7765,5.142 C59.7895,5.161 60.9225,5.179 61.3895,5.179 L68.9815,5.179 C69.5275,5.179 70.5815,5.159 71.5935,5.142 Z M57.2365,5.138 C57.3575,5.253 57.3575,5.663 57.2365,5.78 C55.8185,5.838 55.4745,5.935 55.4745,7.551 L55.4745,15.351 C55.4745,16.967 55.8185,17.065 57.2365,17.122 C57.3575,17.236 57.3575,17.647 57.2365,17.764 C56.2245,17.744 55.6365,17.724 54.6255,17.724 C53.5925,17.724 52.9845,17.745 51.9935,17.764 C51.8715,17.648 51.8715,17.237 51.9935,17.122 C53.4105,17.062 53.7555,16.967 53.7555,15.351 L53.7555,8.426 C53.6045,8.475 53.5005,8.563 53.4015,8.678 L47.8725,15.293 C47.6355,15.584 47.4335,15.74 47.2935,16.202 C47.4375,17.006 47.8885,17.075 48.9985,17.122 C49.1205,17.238 49.1205,17.647 48.9985,17.764 C47.9855,17.743 47.3975,17.724 46.3865,17.724 C45.3535,17.724 44.7465,17.745 43.7545,17.764 C43.6325,17.648 43.6325,17.239 43.7545,17.122 C45.1715,17.063 45.5165,16.967 45.5165,15.351 L45.5165,7.55 C45.5165,5.937 45.1725,5.837 43.7545,5.779 C43.6325,5.664 43.6325,5.254 43.7545,5.139 C44.7675,5.158 45.3545,5.176 46.3665,5.176 C47.3995,5.176 48.0065,5.156 48.9985,5.139 C49.1205,5.253 49.1205,5.663 48.9985,5.779 C47.5815,5.838 47.2355,5.936 47.2355,7.55 L47.2355,14.474 C47.3295,14.469 47.4465,14.403 47.5945,14.261 L53.1575,7.608 C53.3865,7.332 53.5745,6.979 53.6915,6.664 C53.5415,5.894 53.0865,5.824 51.9925,5.78 C51.8705,5.664 51.8705,5.254 51.9925,5.138 C53.0055,5.158 53.5925,5.177 54.6035,5.177 C55.6365,5.177 56.2445,5.156 57.2365,5.138 Z M112.8615,5.138 C112.9835,5.253 112.9835,5.663 112.8615,5.78 C111.4445,5.838 111.0995,5.935 111.0995,7.551 L111.0995,15.351 C111.0995,16.967 111.4445,17.065 112.8615,17.122 C112.9835,17.236 112.9835,17.647 112.8615,17.764 C111.8485,17.744 111.2615,17.724 110.2495,17.724 C109.2185,17.724 108.6095,17.745 107.6185,17.764 C107.4975,17.648 107.4975,17.237 107.6185,17.122 C109.0345,17.062 109.3805,16.967 109.3805,15.351 L109.3805,8.426 C109.2285,8.475 109.1245,8.563 109.0265,8.678 L103.4965,15.293 C103.2615,15.584 103.0585,15.74 102.9185,16.202 C103.0635,17.006 103.5145,17.075 104.6235,17.122 C104.7445,17.238 104.7445,17.647 104.6235,17.764 C103.6105,17.743 103.0225,17.724 102.0125,17.724 C100.9795,17.724 100.3715,17.745 99.3795,17.764 C99.2585,17.648 99.2585,17.239 99.3795,17.122 C100.7975,17.063 101.1415,16.967 101.1415,15.351 L101.1415,7.55 C101.1415,5.937 100.7975,5.837 99.3795,5.779 C99.2585,5.664 99.2585,5.254 99.3795,5.139 C100.3925,5.158 100.9795,5.176 101.9905,5.176 C103.0225,5.176 103.6315,5.156 104.6235,5.139 C104.7445,5.253 104.7445,5.663 104.6235,5.779 C103.2055,5.838 102.8605,5.936 102.8605,7.55 L102.8605,14.474 C102.9555,14.469 103.0715,14.403 103.2185,14.261 L108.7825,7.608 C109.0115,7.332 109.1985,6.979 109.3165,6.664 C109.1675,5.894 108.7125,5.824 107.6185,5.78 C107.4975,5.664 107.4975,5.254 107.6185,5.138 C108.6305,5.158 109.2185,5.177 110.2295,5.177 C111.2615,5.177 111.8705,5.156 112.8615,5.138 Z M29.3535,5.138 C29.4745,5.253 29.4745,5.663 29.3535,5.78 C27.9365,5.838 27.5915,5.935 27.5915,7.551 L27.5915,15.351 C27.5925,16.967 27.9365,17.065 29.3545,17.122 C29.4755,17.236 29.4755,17.647 29.3545,17.764 C28.3415,17.744 27.7545,17.724 26.7425,17.724 C25.7095,17.724 25.1025,17.745 24.1105,17.764 C23.9885,17.648 23.9885,17.237 24.1105,17.122 C25.5275,17.062 25.8725,16.967 25.8725,15.351 L25.8725,8.426 C25.7205,8.475 25.6175,8.563 25.5185,8.678 L19.9885,15.293 C19.7515,15.584 19.5495,15.74 19.4095,16.202 C19.5535,17.006 20.0045,17.075 21.1145,17.122 C21.2365,17.238 21.2365,17.647 21.1145,17.764 C20.1015,17.743 19.5145,17.724 18.5025,17.724 C17.4695,17.724 16.8625,17.745 15.8705,17.764 C15.7495,17.648 15.7495,17.239 15.8705,17.122 C17.2875,17.063 17.6325,16.967 17.6325,15.351 L17.6325,7.55 C17.6325,5.937 17.2885,5.837 15.8705,5.779 C15.7495,5.664 15.7495,5.254 15.8705,5.139 C16.8835,5.158 17.4705,5.176 18.4825,5.176 C19.5155,5.176 20.1225,5.156 21.1145,5.139 C21.2365,5.253 21.2365,5.663 21.1145,5.779 C19.6975,5.838 19.3525,5.936 19.3525,7.55 L19.3525,14.474 C19.4455,14.469 19.5625,14.403 19.7105,14.261 L25.2745,7.608 C25.5035,7.332 25.6915,6.979 25.8085,6.664 C25.6585,5.894 25.2035,5.824 24.1095,5.78 C23.9875,5.664 23.9875,5.254 24.1095,5.138 C25.1225,5.158 25.7095,5.177 26.7215,5.177 C27.7535,5.177 28.3615,5.156 29.3535,5.138 Z M40.3695,5.063 C41.4425,5.063 41.8075,5.626 41.8075,6.074 C41.8075,6.638 41.3425,6.853 40.9165,6.853 C40.6535,6.853 40.3695,6.756 40.1665,6.561 C39.9435,6.346 39.7815,6.249 39.5185,6.249 C38.9115,6.249 38.7715,6.892 38.6685,7.454 C38.4455,8.661 38.0205,10.332 36.4815,10.878 L36.4815,10.976 C37.8785,10.976 38.6685,11.811 39.2145,13.175 C40.2695,15.799 41.3005,17.123 42.0085,17.181 L42.3325,17.201 C42.4345,17.201 42.4945,17.259 42.4945,17.354 L42.4945,17.724 L42.4745,17.764 L40.8745,17.743 C39.2945,17.723 38.5655,16.147 37.6955,14.008 C36.9035,12.065 36.5215,11.422 34.2125,11.422 L34.2125,16.344 C34.2125,16.925 34.5165,17.099 35.3265,17.161 L35.8525,17.197 C35.9335,17.197 36.0145,17.257 36.0145,17.352 L36.0145,17.723 L35.9735,17.762 C35.2445,17.73275 34.7320625,17.7254375 34.0944687,17.7236094 L32.6070656,17.7239096 C31.9911327,17.7261837 31.4580714,17.7341429 30.7495,17.762 L30.7085,17.723 L30.7085,17.354 L30.7105,17.354 C30.7105,17.257 30.7715,17.2 30.8525,17.2 L31.3985,17.163 C32.2495,17.101 32.4925,16.889 32.4925,16.346 L32.4925,6.561 C32.4925,5.977 32.1885,5.802 31.3985,5.743 L30.8725,5.705 C30.7915,5.705 30.7105,5.646 30.7105,5.551 L30.7105,5.181 L30.7515,5.144 C31.7645,5.163 32.3715,5.181 33.3835,5.181 C34.3965,5.181 34.9835,5.161 35.9755,5.144 L36.0165,5.181 L36.0165,5.551 C36.0165,5.649 35.9555,5.705 35.8545,5.705 L35.3285,5.743 C34.5185,5.805 34.2145,6.016 34.2145,6.561 L34.2145,10.606 C34.9435,10.606 35.8545,10.587 36.3405,10.315 C37.5345,9.692 37.8185,8.448 38.0005,7.359 C38.2035,6.155 38.7705,5.063 40.3695,5.063 Z M81.9985,5.097 C82.0605,5.097 82.0785,5.118 82.0785,5.157 C82.1195,5.312 82.4245,7.178 82.5235,7.975 C82.3265,8.069 82.1065,8.109 81.8555,8.075 C81.4105,6.733 81.0855,5.955 79.5675,5.955 L77.4415,5.955 C76.9575,5.955 76.7125,6.343 76.7125,6.809 L76.7125,10.699 L78.5555,10.699 C80.2805,10.701 80.3415,10.45 80.4015,9.379 C80.5235,9.263 80.9485,9.263 81.0705,9.379 C81.0495,9.965 81.0295,10.39 81.0295,11.053 C81.0295,11.713 81.0505,12.082 81.0705,12.766 C80.9485,12.879 80.5235,12.879 80.4015,12.766 C80.3405,11.89 80.2805,11.44 78.5595,11.44 L76.7155,11.44 L76.7155,16.128 C76.7155,16.654 76.9985,16.966 77.4445,16.966 L80.1995,16.966 C81.7375,16.966 82.4475,15.817 82.8505,14.417 C83.1175,14.354 83.3485,14.396 83.5595,14.514 C83.3975,15.506 83.0935,16.79 82.8105,17.763 C82.8105,17.763 81.34845,17.7269 80.3688765,17.72329 L75.8218251,17.7235516 C75.5578152,17.7269819 74.1290238,17.7458095 73.2315,17.763 C73.1105,17.647 73.1105,17.237 73.2315,17.12 C74.6495,17.062 74.9935,16.966 74.9935,15.35 L74.9935,7.549 C74.9935,5.935 74.6495,5.837 73.2315,5.778 C73.1105,5.663 73.1105,5.253 73.2315,5.138 C74.2455,5.157 75.8435,5.175 75.8435,5.175 L81.0065,5.175 C81.4925,5.175 81.6545,5.155 81.9985,5.097 Z M93.4035,5.956 L90.9115,5.956 C90.3665,5.956 90.1635,6.229 90.1225,6.715 C89.9585,8.679 89.6375,10.701 89.3935,12.025 C88.9485,14.3 88.4425,16.227 88.4425,16.634 C88.4425,16.867 88.7065,16.966 88.9895,16.966 L93.4235,16.966 C93.9095,16.966 94.1525,16.906 94.1525,16.187 L94.1525,6.713 C94.1525,6.11 94.0305,5.956 93.4035,5.956 Z M6.6265,8.629 L4.7635,8.629 L4.7635,15.038 C4.7635,15.943 5.1145,16.874 7.0045,16.874 C11.1075,16.874 11.8625,15.205 11.8625,13.203 C11.8625,10.739 10.3235,8.629 6.6265,8.629 Z M121.8985,0.986 C120.3865,0.986 118.3355,1.424 118.3355,3.971 C118.3355,6.875 120.0095,7.808 122.2495,7.808 L124.3545,7.808 L124.3545,1.974 C124.3545,1.067 124.2475,0.986 121.8985,0.986 Z M7.1125,0.933 C4.8418,0.933 4.76611,1.18716889 4.763587,2.02159663 L4.7635,7.698 L6.7615,7.698 C9.0015,7.698 10.5945,6.875 10.5945,4.55 C10.5945,1.754 8.6235,0.933 7.1125,0.933 Z"/>
	</g>
</svg>

<svg xmlns="http://www.w3.org/2000/svg" width="129" height="21"><path fill="#000" fill-rule="nonzero" d="M89.837 5.179h5.284c.608 0 2.208-.037 2.208-.037l.04.037v.37c0 .116-.08.148-.162.154l-.587.038c-.65.043-.749.292-.749.994v9.472c0 .719.456.934.812.992.438.073.594.138.606.37l.142 2.878c-.546 0-.546.021-.546.021-.244-1.089-.973-2.743-2.594-2.743h-5.87c-1.683 0-2.208 1.732-2.43 2.743l-.549-.021.143-2.878c.014-.232.226-.341.427-.37.395-.059.719-.106 1.011-.389.53-.506.892-1.907 1.54-4.941.444-2.217.688-4.22.688-5.446 0-.408-.184-.609-.71-.66l-.606-.06c-.103 0-.162-.038-.162-.117v-.407l.04-.037s1.418.037 2.023.037zm35.68-5.125c.837 0 3.454-.027 3.454-.027v.575c0 .109-.054.189-.188.189l-.81.057c-1.135.082-1.433.275-1.433 1.205v13.67c0 .823.353 1.124 1.46 1.205l.728.058c.107 0 .216.081.216.218v.521l-.053.057s-2.159-.052-3.264-.057h-.137c-.972 0-3.481.057-3.481.057l-.055-.057v-.521c0-.137.082-.218.217-.218l.7-.058c1.136-.086 1.485-.437 1.485-1.205V8.848c-2.861 0-3.4.794-4.534 3.7-1.162 2.971-2.16 5.174-4.076 5.204l-1.78.025-.027-.055-.003-.519c0-.137.08-.218.188-.218l.242-.028c.864-.108 2.203-1.6 3.591-5.261.675-1.78 1.484-2.466 2.214-2.903v-.081c-1.837-.274-4.022-1.644-4.022-4.439 0-1.891.918-4.246 5.939-4.246.945 0 2.537.027 3.428.027zM6.976 0c5.02 0 5.803 2.382 5.803 4.218 0 1.487-1.211 2.895-2.563 3.59v.055c2.348.686 4.156 2.19 4.156 4.822 0 2.354-1.43 5.096-6.801 5.096-2.402 0-2.78-.057-3.942-.057-1.375 0-2.185.028-3.508.057-.163-.165-.163-.741 0-.906 1.89-.081 2.347-.218 2.347-2.491V3.397C2.47 1.124 2.011.986.123.904-.041.741-.041.165.122.001c1.35.026 2.131.055 3.481.055C4.763.055 6.032 0 6.976 0zm64.617 5.142c.12.114.12.524 0 .64-1.418.059-1.762.156-1.762 1.771v7.801c0 1.615.344 1.712 1.762 1.771.12.116.12.525 0 .642-.992-.021-1.6-.04-2.633-.04-1.013 0-1.6.021-2.611.04-.121-.116-.121-.525 0-.642 1.416-.059 1.762-.155 1.762-1.771V7.398c0-1.205-.445-1.438-.932-1.438h-3.99c-.484 0-.931.231-.931 1.438v7.956c0 1.615.343 1.712 1.761 1.771.124.116.124.525 0 .642-1.011-.021-1.6-.04-2.61-.04-1.033 0-1.641.021-2.633.04-.121-.116-.121-.525 0-.642 1.417-.059 1.761-.155 1.761-1.771V7.553c0-1.613-.343-1.713-1.761-1.771-.121-.115-.121-.525 0-.64 1.012.019 2.145.037 2.612.037h7.592c.547 0 1.6-.02 2.613-.037zm-14.357-.004c.12.115.12.525 0 .642-1.419.058-1.763.155-1.763 1.771v7.8c0 1.616.345 1.714 1.763 1.771.12.114.12.525 0 .642-1.013-.02-1.6-.04-2.611-.04-1.033 0-1.642.021-2.633.04-.122-.116-.122-.527 0-.642 1.417-.06 1.762-.155 1.762-1.771V8.426a.766.766 0 0 0-.354.252l-5.529 6.615c-.236.291-.438.447-.578.909.144.804.595.873 1.705.92.121.116.121.525 0 .642-1.014-.021-1.602-.04-2.613-.04-1.033 0-1.64.021-2.632.04-.121-.116-.121-.525 0-.642 1.418-.059 1.763-.155 1.763-1.771V7.55c0-1.613-.345-1.713-1.763-1.771-.121-.115-.121-.525 0-.64 1.014.019 1.6.037 2.613.037 1.033 0 1.64-.02 2.632-.037.121.114.121.524 0 .64-1.418.059-1.764.157-1.764 1.771v6.924c.095-.005.212-.071.36-.213l5.563-6.653c.228-.276.416-.629.533-.944-.15-.77-.605-.84-1.699-.884-.121-.116-.121-.526 0-.642 1.014.02 1.6.039 2.611.039 1.033 0 1.642-.021 2.633-.039zm55.625 0c.122.115.122.525 0 .642-1.417.058-1.762.155-1.762 1.771v7.8c0 1.616.345 1.714 1.762 1.771.122.114.122.525 0 .642-1.013-.02-1.6-.04-2.612-.04-1.031 0-1.64.021-2.632.04-.12-.116-.12-.527 0-.642 1.416-.06 1.763-.155 1.763-1.771V8.426a.756.756 0 0 0-.355.252l-5.53 6.615c-.234.291-.438.447-.578.909.145.804.596.873 1.706.92.12.116.12.525 0 .642-1.013-.021-1.602-.04-2.611-.04-1.034 0-1.642.021-2.634.04-.12-.116-.12-.525 0-.642 1.418-.059 1.762-.155 1.762-1.771V7.55c0-1.613-.344-1.713-1.762-1.771-.12-.115-.12-.525 0-.64 1.013.019 1.6.037 2.611.037 1.032 0 1.642-.02 2.634-.037.12.114.12.524 0 .64-1.418.059-1.763.157-1.763 1.771v6.924c.094-.005.21-.071.358-.213l5.564-6.653c.228-.276.415-.629.534-.944-.15-.77-.604-.84-1.698-.884-.121-.116-.121-.526 0-.642 1.011.02 1.6.039 2.61.039 1.032 0 1.642-.021 2.633-.039zm-83.508 0c.12.115.12.525 0 .642-1.418.058-1.762.155-1.762 1.771v7.8c0 1.616.345 1.714 1.763 1.771.12.114.12.525 0 .642-1.014-.02-1.6-.04-2.613-.04-1.033 0-1.64.021-2.632.04-.122-.116-.122-.527 0-.642 1.418-.06 1.762-.155 1.762-1.771V8.426a.76.76 0 0 0-.354.252l-5.53 6.615c-.236.291-.439.447-.578.909.143.804.595.873 1.704.92.122.116.122.525 0 .642-1.012-.021-1.6-.04-2.611-.04-1.034 0-1.64.021-2.633.04-.12-.116-.12-.525 0-.642 1.418-.059 1.763-.155 1.763-1.771V7.55c0-1.613-.345-1.713-1.762-1.771-.122-.115-.122-.525 0-.64 1.013.019 1.6.037 2.612.037 1.032 0 1.64-.02 2.631-.037.122.114.122.524 0 .64-1.416.059-1.762.157-1.762 1.771v6.924c.093-.005.21-.071.358-.213l5.564-6.653c.23-.276.418-.629.534-.944-.15-.77-.605-.84-1.698-.884-.122-.116-.122-.526 0-.642 1.012.02 1.6.039 2.611.039 1.032 0 1.64-.021 2.633-.039zm11.016-.075c1.073 0 1.438.563 1.438 1.011 0 .564-.465.779-.892.779a1.1 1.1 0 0 1-.75-.292c-.222-.215-.384-.312-.647-.312-.608 0-.747.643-.85 1.205-.223 1.207-.648 2.878-2.188 3.424v.098c1.398 0 2.188.835 2.733 2.199 1.056 2.624 2.087 3.948 2.794 4.006l.325.02c.102 0 .162.058.162.153v.37l-.02.04-1.6-.021c-1.58-.02-2.31-1.596-3.18-3.735-.791-1.943-1.173-2.586-3.483-2.586v4.922c0 .581.304.755 1.114.817l.526.036c.082 0 .163.06.163.155v.371l-.041.039a46.027 46.027 0 0 0-1.88-.038h-1.487c-.616.002-1.149.01-1.857.038l-.041-.039v-.369h.002c0-.097.06-.154.142-.154l.545-.037c.851-.062 1.095-.274 1.095-.817V6.561c0-.584-.305-.759-1.095-.818l-.526-.038c-.08 0-.162-.059-.162-.154v-.37l.041-.037c1.014.019 1.62.037 2.632.037 1.014 0 1.6-.02 2.592-.037l.041.037v.37c0 .098-.06.154-.161.154l-.526.038c-.81.062-1.114.273-1.114.818v4.045c.728 0 1.64-.019 2.125-.291 1.194-.623 1.478-1.867 1.66-2.956.203-1.204.77-2.296 2.37-2.296zm41.629.034c.062 0 .08.021.08.06.04.155.346 2.021.445 2.818a1.154 1.154 0 0 1-.668.1c-.445-1.342-.77-2.12-2.288-2.12h-2.126c-.484 0-.73.388-.73.854v3.89h1.843c1.725.002 1.786-.249 1.846-1.32.123-.116.547-.116.67 0-.022.586-.041 1.011-.041 1.674 0 .66.02 1.029.04 1.713-.121.113-.546.113-.668 0-.061-.876-.121-1.326-1.843-1.326h-1.843v4.688c0 .526.283.838.729.838H80.2c1.537 0 2.248-1.149 2.65-2.549a.947.947 0 0 1 .71.097 30.353 30.353 0 0 1-.75 3.249s-1.462-.036-2.441-.04h-4.547c-.264.004-1.693.023-2.59.04-.121-.116-.121-.526 0-.643 1.418-.058 1.761-.154 1.761-1.77V7.549c0-1.614-.343-1.712-1.761-1.771-.121-.115-.121-.525 0-.64 1.014.019 2.612.037 2.612.037h5.163c.486 0 .647-.02.992-.078zm11.404.859h-2.492c-.544 0-.748.273-.788.759-.165 1.964-.486 3.986-.73 5.31-.445 2.275-.95 4.202-.95 4.609 0 .233.264.332.547.332h4.434c.485 0 .728-.06.728-.779V6.713c0-.603-.121-.757-.749-.757zM6.627 8.629H4.763v6.409c0 .905.351 1.836 2.242 1.836 4.103 0 4.858-1.669 4.858-3.671 0-2.464-1.54-4.574-5.236-4.574zM121.899.986c-1.513 0-3.564.438-3.564 2.985 0 2.904 1.675 3.837 3.915 3.837h2.105V1.974c0-.907-.108-.988-2.457-.988zM7.111.933c-2.27 0-2.346.254-2.348 1.089v5.676H6.76c2.24 0 3.833-.823 3.833-3.148 0-2.796-1.97-3.617-3.481-3.617z"/></svg>
